X:1
T:[ID 2-19]
T:[ID 2-19]
T:Bezeichnung standardisiert: Englischer Contratanz Engl. Conter Tantz
T:Urheber unbekannt Datum in der hier transkribierten schriftlichen Quelle: 1767
C:Urheber unbekannt
C:Datum in der hier transkribierten schriftlichen Quelle: 1767
L:1/8
M:2/4
K:G
V:1 treble 
V:1
 cBAF | GF/E/ D2 | EDEF | GF/E/ D2 | cBAF | GF/E/ D2 | GFGB |"^1)" A/B/A/F/ G2 :: Bcde | dc/B/ c2 | %10
 ABcd | cB/A/ B2 | Bcde | dc/B/ A2 | dcdc | dc/B/ A2 | cBAF | GF/E/ D2 | EDEF | GF/E/ D2 | cBAF | %21
 GF/E/ D2 | GFGB | A/B/A/F/ G2 | gdBG | gdBG | gfec | dc/B/ A2 | dcdf | e/f/e/c/ d2 | cBAF | %31
 GF/E/ D2 | EDEF | GF/E/ D2 | cBAF | GF/E/ D2 | GFGB | A/B/A/F/ G2 :| %38

